src/svg/icons/menu.svg

<?xml version="1.0" encoding="utf-8"?>
<!-- Generated by IcoMoon.io -->
<!DOCTYPE svg PUBLIC "-//W3C//DTD SVG 1.1//EN" "http://www.w3.org/Graphics/SVG/1.1/DTD/svg11.dtd">
<svg version="1.1" xmlns="http://www.w3.org/2000/svg" xmlns:xlink="http://www.w3.org/1999/xlink" width="24" height="24" viewBox="0 0 24 24">
<path d="M3 5h18q0.414 0 0.707 0.293t0.293 0.707-0.293 0.707-0.707 0.293h-18q-0.414 0-0.707-0.293t-0.293-0.707 0.293-0.707 0.707-0.293zM3 17h18q0.414 0 0.707 0.293t0.293 0.707-0.293 0.707-0.707 0.293h-18q-0.414 0-0.707-0.293t-0.293-0.707 0.293-0.707 0.707-0.293zM3 11h18q0.414 0 0.707 0.293t0.293 0.707-0.293 0.707-0.707 0.293h-18q-0.414 0-0.707-0.293t-0.293-0.707 0.293-0.707 0.707-0.293z"></path>
</svg>

<svg xmlns="http://www.w3.org/2000/svg" viewBox="0 0 24 24"><path d="M3 5h18q.4 0 .7.3t.3.7-.3.7-.7.3H3q-.4 0-.7-.3T2 6t.3-.7T3 5zm0 12h18q.4 0 .7.3t.3.7-.3.7-.7.3H3q-.4 0-.7-.3T2 18t.3-.7.7-.3zm0-6h18q.4 0 .7.3t.3.7-.3.7-.7.3H3q-.4 0-.7-.3T2 12t.3-.7.7-.3z"/></svg>
